X:1
T:Smash the Windows
L:1/8
M:none
I:linebreak $
K:D
V:1 treble nm="Voice" snm="Voice"
V:1
"D" DED F2 A | d2 f ecA | G2 B F2 A | E2 F GFE |$ DED F2 A | d2 f ecA | Bgf edc | ded d3 :|$ %8
 a2 f d2 e | f2 g agf | g2 e c2 d | e2 f gfe |$ a2 f d2 e | f2 g agf | g2 e cde | d3 dfg |$ %16
 a2 f d2 e | f2 g agf | g2 e c2 d | e2 f gfe |$ fed gfe | agf bag | fed cde | ded d2 A |] %24
